X:9
T: Ha bemegyek, ha bemegyek
O: Berhida (Veszprém), Kudar József (72), 1965
Q:1/4=116
M:4/4
L:1/4
K:F
G/B/A/G/ | d<g f/dd/ | c/d/c/B/ | AGG z |
G/B/A/G/ | d<g f<d | | (5:4:4 B d/ c/B/ | AGGz |
b>a g<a | g>f d/f z/ | a<g ^f<g | d>B c/Gz/ |
(3:2:2 GB/ A/G/ | d g f d | B/d/ c/B/ | A<G G z |

